symbols/web/mark_unread_chat_alt/materialsymbolsoutlined/mark_unread_chat_alt_wght100grad200fill1_40px.svg

<svg xmlns="http://www.w3.org/2000/svg" height="40" width="40"><path d="M31.667 11.708q-1.75 0-2.959-1.208-1.208-1.208-1.208-3 0-1.708 1.208-2.937 1.209-1.23 2.959-1.23t2.979 1.23q1.229 1.229 1.229 2.937 0 1.792-1.229 3t-2.979 1.208ZM4.625 33.667V7.333q0-1.291.875-2.166t2.167-.875h17.208q-.333.375-.542.791Q24.125 5.5 24 6q-.167 1.208.042 2.271.208 1.062.625 1.979H10.625v1h12.792q1.583 1.792 3.708 2.771Q29.25 15 31.667 15q1.041 0 2-.312.958-.313 1.708-.938v11.458q0 1.334-.875 2.209t-2.167.875H10Zm6-16.917h18.75v-1h-18.75Zm0 5.5h11.958v-1H10.625Z"/></svg>

<svg xmlns="http://www.w3.org/2000/svg" height="40" width="40"><path d="M31.667 11.708Q29.917 11.708 28.708 10.5Q27.5 9.292 27.5 7.5Q27.5 5.792 28.708 4.563Q29.917 3.333 31.667 3.333Q33.417 3.333 34.646 4.563Q35.875 5.792 35.875 7.5Q35.875 9.292 34.646 10.5Q33.417 11.708 31.667 11.708ZM4.625 33.667V7.333Q4.625 6.042 5.5 5.167Q6.375 4.292 7.667 4.292H24.875Q24.542 4.667 24.333 5.083Q24.125 5.5 24 6Q23.833 7.208 24.042 8.271Q24.25 9.333 24.667 10.25H10.625V11.25H23.417Q25 13.042 27.125 14.021Q29.25 15 31.667 15Q32.708 15 33.667 14.688Q34.625 14.375 35.375 13.75V25.208Q35.375 26.542 34.5 27.417Q33.625 28.292 32.333 28.292H10ZM10.625 16.75H29.375V15.75H10.625ZM10.625 22.25H22.583V21.25H10.625Z"/></svg>
